images/viber.svg

<svg width="32" height="32" viewBox="0 0 32 32" fill="#000" xmlns="http://www.w3.org/2000/svg">
	<circle cx="16" cy="16" r="16" fill="#E9E9E9"/>
	<path d="M22.8359 15.9095C22.8332 17.0935 22.5762 18.138 22.0566 19.1087C21.5672 20.0248 20.8918 20.7877 20.0414 21.3892C19.2949 21.9169 18.4773 22.2779 17.5832 22.4638C16.5934 22.6689 15.6035 22.647 14.6219 22.4119C14.1023 22.2861 13.6047 22.0947 13.1371 21.8404C13.0578 21.7966 12.9895 21.7939 12.9047 21.8212C11.8738 22.1521 10.843 22.4802 9.81211 22.8084C9.69453 22.8466 9.57969 22.8822 9.46211 22.9259C9.38008 22.956 9.37461 22.9259 9.39648 22.8576C9.5168 22.5048 9.63438 22.1521 9.75469 21.7966C10.0117 21.0283 10.2688 20.2599 10.5313 19.4943C10.5668 19.3931 10.5148 19.3275 10.4738 19.2564C10.1512 18.6959 9.92148 18.0998 9.7793 17.4709C9.47031 16.1146 9.57969 14.7857 10.0992 13.4978C10.4 12.7541 10.8293 12.0869 11.3789 11.4962C12.0789 10.7416 12.9074 10.1865 13.8645 9.8146C14.7586 9.46734 15.6828 9.33335 16.6344 9.39078C17.9387 9.47007 19.1254 9.9021 20.1672 10.6896C21.5152 11.7068 22.3629 13.0439 22.702 14.7037C22.7922 15.1275 22.825 15.5568 22.8359 15.9095ZM16.1777 10.4982C15.9234 10.4873 15.6254 10.5173 15.3273 10.5611C15.2098 10.5775 15.0949 10.6021 14.9801 10.6322C13.2027 11.0834 11.9258 12.1443 11.1738 13.815C10.7391 14.7802 10.6215 15.8002 10.7855 16.8447C10.9141 17.6705 11.2203 18.4306 11.6988 19.1169C11.7508 19.1935 11.759 19.2591 11.7289 19.3439C11.5266 19.9373 11.3297 20.5334 11.1301 21.1294C11.1191 21.1623 11.0863 21.2005 11.1164 21.2306C11.1465 21.2634 11.1848 21.2279 11.2176 21.2169C11.8164 21.0255 12.4152 20.8369 13.0086 20.6373C13.1453 20.5908 13.2438 20.6127 13.3613 20.6837C14.7039 21.4904 16.1395 21.7037 17.6516 21.3017C18.8 20.9982 19.7461 20.372 20.4953 19.4478C21.2199 18.5537 21.6246 17.531 21.7066 16.388C21.7695 15.5103 21.6328 14.6572 21.2828 13.8423C20.8426 12.8169 20.1563 11.9966 19.2293 11.3869C18.3215 10.7908 17.318 10.4845 16.1777 10.4982Z"/>
	<path d="M12.9129 14.4028C12.9238 13.7876 13.1645 13.2817 13.6348 12.888C13.7687 12.7758 13.9301 12.7294 14.1078 12.7594C14.1844 12.7704 14.2637 12.7813 14.3375 12.7731C14.5234 12.7594 14.6301 12.8633 14.6875 13.0165C14.8625 13.4758 15.032 13.9379 15.2043 14.3973C15.2371 14.4848 15.2289 14.5641 15.1879 14.6462C15.0812 14.8676 14.9117 15.0399 14.7422 15.2122C14.5945 15.3626 14.5863 15.4118 14.6875 15.595C15.177 16.4809 15.8523 17.17 16.7875 17.5883C16.834 17.6075 16.875 17.6403 16.9187 17.6594C17.0363 17.7169 17.143 17.7114 17.2414 17.6102C17.4328 17.4161 17.6105 17.2083 17.7828 16.995C17.9168 16.8282 17.9797 16.8036 18.1684 16.8883C18.6277 17.1016 19.0652 17.3504 19.5109 17.5911C19.6586 17.6704 19.675 17.7797 19.6531 17.9794C19.5629 18.7915 18.9422 19.1606 18.234 19.2782C17.9961 19.3165 17.7719 19.2946 17.5477 19.2235C16.8914 19.0157 16.2461 18.7751 15.6664 18.3977C15.125 18.045 14.6602 17.6047 14.2527 17.1044C13.8562 16.6149 13.5035 16.0981 13.2109 15.5376C13.0469 15.2176 12.9129 14.72 12.9129 14.4028Z"/>
</svg>

<svg width="32" height="32" xmlns="http://www.w3.org/2000/svg"><circle cx="16" cy="16" r="16" fill="#E9E9E9"/><path d="M22.836 15.91c-.003 1.183-.26 2.228-.78 3.199a6.537 6.537 0 01-2.015 2.28 6.514 6.514 0 01-2.458 1.075c-.99.205-1.98.183-2.961-.052a6.114 6.114 0 01-1.485-.572.268.268 0 00-.232-.019c-1.031.331-2.062.66-3.093.987-.117.039-.232.074-.35.118-.082.03-.087 0-.066-.068l.359-1.061c.257-.769.514-1.537.776-2.303.036-.1-.016-.166-.057-.238a6.377 6.377 0 01-.695-1.785 6.526 6.526 0 01.32-3.973 6.496 6.496 0 011.28-2.002 6.598 6.598 0 012.486-1.681 6.48 6.48 0 012.77-.424 6.394 6.394 0 013.532 1.299c1.348 1.017 2.196 2.354 2.535 4.014.09.423.123.853.134 1.205zm-6.658-5.412a4.724 4.724 0 00-1.198.134c-1.777.451-3.054 1.512-3.806 3.183-.435.965-.553 1.985-.388 3.03a5.36 5.36 0 00.913 2.272c.052.076.06.142.03.227-.202.593-.4 1.19-.599 1.785-.01.033-.044.072-.014.102.03.032.069-.003.102-.014.598-.191 1.197-.38 1.79-.58.137-.046.236-.024.353.047 1.343.806 2.779 1.02 4.29.618 1.149-.304 2.095-.93 2.844-1.854a5.368 5.368 0 001.212-3.06 5.394 5.394 0 00-.424-2.546 5.455 5.455 0 00-2.054-2.455 5.298 5.298 0 00-3.051-.889z"/><path d="M12.913 14.403c.01-.615.252-1.121.722-1.515a.566.566 0 01.473-.129.932.932 0 00.23.014c.185-.014.292.09.35.244.175.459.344.92.516 1.38a.294.294 0 01-.016.25c-.107.22-.276.393-.446.565-.148.15-.156.2-.055.383.49.886 1.165 1.575 2.1 1.993.047.02.088.052.132.071.117.058.224.052.322-.049a8.29 8.29 0 00.542-.615c.134-.167.197-.191.385-.107.46.214.897.462 1.343.703.148.08.164.189.142.388-.09.813-.71 1.182-1.419 1.3a1.455 1.455 0 01-.686-.055c-.657-.208-1.302-.449-1.882-.826a6.178 6.178 0 01-1.413-1.294 9.402 9.402 0 01-1.042-1.566c-.164-.32-.298-.818-.298-1.135z"/></svg>
